X: 1201
T: The Mourne Mountains
M:C|
L:1/8
R:Reel
B:O'Neill's 1201
N:Collected by J. O'Neill
Z:Transcribed by Trish O'Nei
K:G
BGGAG2(ED)|EAABA2(GE)|DEGA BABd|(3efg (dB) cBAG|
BGGAG2(ED)|EAABA2(GE)|DEGA BABd|(3efg (dc) BGG2||
dggag2(ed)|eaaba2(ge)|dega bagf|(3efg (3dcB cBAc|
dggag2(ed)|eaaba2(ge)|dega bagf|(3gfe dc BGG2||


